!!!OTL: Quartett in d für 2 Violinen, Viola und Violoncello, 3. Satz, KV 421/03
!!!system-decoration: [(s1,s2,s3,s4)]
**kern	**kern	**kern	**kern	**dynam	**kern	**kern	**kern	**kern	**dynam	**kern	**kern	**kern	**kern	**dynam	**kern	**kern	**kern	**kern	**dynam
*part4	*part4	*part4	*part4	*part4	*part3	*part3	*part3	*part3	*part3	*part2	*part2	*part2	*part2	*part2	*part1	*part1	*part1	*part1	*part1
*staff16	*staff15	*staff14	*staff13	*	*staff12	*staff11	*staff10	*staff9	*	*staff8	*staff7	*staff6	*staff5	*	*staff4	*staff3	*staff2	*staff1	*
*I"Violoncello	*	*	*	*	*I"Viola	*	*	*	*	*I"Violino II	*	*	*	*	*I"Violino I	*	*	*	*
*clefF4	*	*clefC3	*	*clefG2	*	*clefG2	*
*k[b-]	*	*k[b-]	*	*k[b-]	*	*k[b-]	*
*M3/4	*	*M3/4	*	*M3/4	*	*M3/4	*
8.dL	.	4r	.	4r	.	8.ddL	.
16dJ	.	.	.	.	.	16ddJ	.
=1	=1	=1	=1	=1	=1	=1	=1
[2.d	.	4r	.	4r	.	(4dd	.
.	.	4r	.	4r	.	4a	.
.	.	8.fL	.	8.aL	.	4ff)	.
.	.	16fJ	.	16aJ	.	.	.
=2	=2	=2	=2	=2	=2	=2	=2
2.d_	.	(4g	.	(4b-y	.	(8ffL	.
.	.	.	.	.	.	8ee	.
.	.	4e	.	4g	.	8dd	.
.	.	.	.	.	.	8cc#	.
.	.	4f)	.	4a)	.	8dd	.
.	.	.	.	.	.	8ffJ)	.
=3	=3	=3	=3	=3	=3	=3	=3
4d]	.	4d	.	4f	.	4aa	.
4r	.	4r	.	4r	.	4aa	.
8.dL	.	8.dL	.	8.fL	.	4aa	.
16dJ	.	16dJ	.	16fJ	.	.	.
=4	=4	=4	=4	=4	=4	=4	=4
(2.c#	.	(4e	.	(4a	.	(4aa	.
.	.	4a)	.	4cc#	.	4ee)	.
.	.	4r	.	4ee)	.	8.ggL	.
.	.	.	.	.	.	16ggJ	.
=5	=5	=5	=5	=5	=5	=5	=5
4cn)	.	4cn	.	4e	.	4gg	.
4r	.	4r	.	4r	.	4gg	.
8.cL	.	8.cL	.	8.eL	.	4gg	.
16cJ	.	16cJ	.	16eJ	.	.	.
=6	=6	=6	=6	=6	=6	=6	=6
(2.Bn	.	(4d	.	(4g	.	(4gg	.
.	.	4g)	.	4bn	.	4dd)	.
.	.	4r	.	4dd)	.	8.ffL	.
.	.	.	.	.	.	16ffJ	.
=7	=7	=7	=7	=7	=7	=7	=7
4B-)	.	4g#	.	4d	.	4ff	.
4r	.	4r	.	4r	.	4ff	.
8.B-yL	.	[4d	.	4g#	.	4ff	.
16B-yJ	.	.	.	.	.	.	.
!!LO:LB
=8	=8	=8	=8	=8	=8	=8	=8
(4A	.	(8dL_	.	2.a	.	(8ffL	.
.	.	8c#)	.	.	.	8ee)	.
4G	.	(8c#y	.	.	.	(8ee	.
.	.	8eJ)	.	.	.	8cc#J)	.
4F)	.	4d	.	.	.	4dd	.
=9	=9	=9	=9	=9	=9	=9	=9
4G	.	4B-	.	4gn	.	4ee	.
4A	.	4A	.	4f	.	4a	.
4AA	.	4G	.	4e	.	4cc#	.
=10	=10	=10	=10	=10	=10	=10	=10
2D	.	2F	.	2d	.	2dd	.
=:|!	=:|!	=:|!	=:|!	=:|!	=:|!	=:|!	=:|!
4r	.	4r	.	4r	.	8.ddL	.
.	.	.	.	.	.	16ddJ	.
=11	=11	=11	=11	=11	=11	=11	=11
2G#	.	(4d	.	2bn	.	(4ff	.
.	.	4f)	.	.	.	4dd)	.
4r	.	4r	.	4r	.	8.bnL	.
.	.	.	.	.	.	16bJ	.
=12	=12	=12	=12	=12	=12	=12	=12
2A	.	(4e	.	2a	.	(4ccn	.
.	.	4cn)	.	.	.	4ee)	.
4r	.	4r	.	4r	.	8.ccL	.
.	.	.	.	.	.	16ccJ	.
=13	=13	=13	=13	=13	=13	=13	=13
4r	.	4r	.	4r	.	(4ee	.
(4AA	.	(4e	.	(4a	.	4cc	.
4F)	.	4A)	.	4d#)	.	4a)	.
=14	=14	=14	=14	=14	=14	=14	=14
[2.E	.	(4Bn	.	2e	.	(4g#	.
.	.	4G#)	.	.	.	4bn)	.
.	.	(4e	.	(4g#	.	8.eeL	.
.	.	.	.	.	.	16eeJ	.
=15	=15	=15	=15	=15	=15	=15	=15
2.E_	.	4f#	.	4a	.	(2.dd#	.
.	.	4g#	.	4bn	.	.	.
.	.	4a	.	4cc)	.	.	.
=16	=16	=16	=16	=16	=16	=16	=16
2.E_	.	4g#	.	(4bn	.	4ddn)	.
.	.	4f#	.	4a	.	4r	.
.	.	4e)	.	4g#	.	8.ddL	.
.	.	.	.	.	.	16ddJ	.
=17	=17	=17	=17	=17	=17	=17	=17
2.E_	.	(4e_	.	4gn	.	(2.cc#	.
.	.	4f#	.	4a	.	.	.
.	.	4gn	.	4b-)	.	.	.
=18	=18	=18	=18	=18	=18	=18	=18
2.E_	.	4f#	.	(4a	.	4ccn)	.
.	.	4e	.	4g	.	4r	.
.	.	4d#)	.	4f#)	.	8.ccL	.
.	.	.	.	.	.	16ccJ	.
=19	=19	=19	=19	=19	=19	=19	=19
(4E_	crescendo	(4dn	cresc.	(8eL	cresc.	(4bn	crescendo
.	.	.	.	8fn	.	.	.
4D	.	4B	.	8e	.	4g#	.
.	.	.	.	8f	.	.	.
4C)	.	4c)	.	8e	.	4a)	.
.	.	.	.	8fJ	.	.	.
=20	=20	=20	=20	=20	=20	=20	=20
(4BBn	.	(4G#	.	8eL	.	(2dd	.
.	.	.	.	8f	.	.	.
4GG#	.	4Bn	.	8e	.	.	.
.	.	.	.	8f	.	.	.
4AA)	.	4A)	.	8e	.	4cc)	.
.	.	.	.	8aJ)	.	.	.
=21	=21	=21	=21	=21	=21	=21	=21
4D	.	(8AL_	.	4f	.	(8ccL	.
.	.	8dJ)	.	.	.	8bnJ)	.
4E	.	4c	.	4e	.	4a	.
8.EL	.	4Bn	.	8.ddL	.	4g#	.
16EJ	.	.	.	16ddJ	.	.	.
=22	=22	=22	=22	=22	=22	=22	=22
4AA	.	4A	.	(2.cc#	.	2gn	.
4A	.	4r	.	.	.	.	.
4r	.	8.AL	.	.	.	8.ggL	.
.	.	16AJ	.	.	.	16ggJ	.
=23	=23	=23	=23	=23	=23	=23	=23
4r	.	4D	.	4ccn)	.	(2.ff#	.
4r	.	4d	.	4r	.	.	.
8.DL	.	4r	.	8.ccL	.	.	.
16DJ	.	.	.	16ccJ	.	.	.
!!LO:LB
=24	=24	=24	=24	=24	=24	=24	=24
4GG	.	4r	.	(2.bn	.	4ffn)	.
4G	.	4r	.	.	.	4r	.
4r	.	8.GL	.	.	.	8.ffL	.
.	.	16GJ	.	.	.	16ffJ	.
=25	=25	=25	=25	=25	=25	=25	=25
4r	.	4C	.	4b-)	.	(2.ee	.
4r	.	4c	.	4r	.	.	.
8.CL	.	4r	.	8.b-yL	.	.	.
16CJ	.	.	.	16b-yJ	.	.	.
=26	=26	=26	=26	=26	=26	=26	=26
4FF	.	4r	.	2.a	.	4ee-)	.
4F	.	4r	.	.	.	4r	.
4r	.	8.FL	.	.	.	8.ee-yL	.
.	.	16FJ	.	.	.	16ee-yJ	.
=27	=27	=27	=27	=27	=27	=27	=27
[2.BB-y	.	(2F	.	(4b-y	.	(4dd	.
.	.	.	.	4d	.	4b-y	.
.	.	4E)	.	4e)	.	4a)	.
=28	=28	=28	=28	=28	=28	=28	=28
(2.BB-y_	.	(4D	.	(4f	.	(4g#'	.
.	.	4C#	.	4e	.	4g#y'	.
.	.	4D)	.	4d)	.	4g#y')	.
=29	=29	=29	=29	=29	=29	=29	=29
4AA)	.	4E	.	4c#	.	4a	.
4r	.	4r	.	4r	.	4r	.
8.dL	.	4r	.	4r	.	8.ddL	.
16dJ	.	.	.	.	.	16ddJ	.
=30	=30	=30	=30	=30	=30	=30	=30
[2.d	.	4r	.	4r	.	(4dd	.
.	.	4r	.	4r	.	4a	.
.	.	8.fL	.	8.aL	.	4ff)	.
.	.	16fJ	.	16aJ	.	.	.
=31	=31	=31	=31	=31	=31	=31	=31
2.d_	.	(4g	.	(4b-y	.	(8ffL	.
.	.	.	.	.	.	8ee	.
.	.	4e	.	4g	.	8dd	.
.	.	.	.	.	.	8cc#	.
.	.	4f)	.	4a)	.	8dd	.
.	.	.	.	.	.	8ffJ)	.
!!LO:LB
=32	=32	=32	=32	=32	=32	=32	=32
4d]	.	4d	.	4f	.	4aa	.
4r	.	4r	.	4r	.	4aa	.
8.dL	.	8.dL	.	8.fL	.	4aa	.
16dJ	.	16dJ	.	16fJ	.	.	.
=33	=33	=33	=33	=33	=33	=33	=33
(2.c#	.	(4e	.	(4a	.	(4aa	.
.	.	4a)	.	4cc#	.	4ee)	.
.	.	4r	.	4ee)	.	8.ggL	.
.	.	.	.	.	.	16ggJ	.
=34	=34	=34	=34	=34	=34	=34	=34
4cn)	.	4cn	.	4e	.	4gg	.
4r	.	4r	.	4r	.	4gg	.
8.cL	.	8.cL	.	8.eL	.	4gg	.
16cJ	.	16cJ	.	16eJ	.	.	.
=35	=35	=35	=35	=35	=35	=35	=35
(2.Bn	.	(4d	.	(4g	.	(4gg	.
.	.	4g)	.	4bn	.	4dd)	.
.	.	4r	.	4dd)	.	8.ffL	.
.	.	.	.	.	.	16ffJ	.
=36	=36	=36	=36	=36	=36	=36	=36
4B-)	.	4g#	.	4d	.	4ff	.
4r	.	4r	.	4r	.	4ff	.
8.B-yL	.	[4d	.	4g#	.	4ff	.
16B-yJ	.	.	.	.	.	.	.
=37	=37	=37	=37	=37	=37	=37	=37
(4A	.	(8dL_	.	2.a	.	(8ffL	.
.	.	8c#)	.	.	.	8ee)	.
4G	.	(8c#y	.	.	.	(8ee	.
.	.	8eJ)	.	.	.	8cc#J)	.
4F)	.	4d	.	.	.	4dd	.
=38	=38	=38	=38	=38	=38	=38	=38
4G	.	4B-	.	4gn	.	4ee	.
4A	.	4A	.	4f	.	4a	.
4AA	.	4G	.	4e	.	4cc#	.
=39	=39	=39	=39	=39	=39	=39	=39
2D	.	2F	.	2d	.	2dd	.
=:|!	=:|!	=:|!	=:|!	=:|!	=:|!	=:|!	=:|!
*-	*-	*-	*-	*-	*-	*-	*-
